X:187
T:The milliner's daughter
T:Up stairs in a tent
P:See also: Paddy Canny's
R:Reel
O:Ireland
B:O'Neill's 1180
B:Roche 1 n179
S:O'Neill's 1180
Z:Transcription:Trish O'Neil, minor arr., chords:Mike Long
M:C|
L:1/8
K:G
"G"G2BG DGBG|"D"A2eg fdcA|"G"G2BG DGBd|"D"cAFA "G"BGG2:|\
"G"dg~g2 dg~g2|"F"d=f~f2 d=f~f2|
"G"dg~g2 dg~g2|"D"d^cde fd=cA|\
"G"dg~g2 bgaf|"D"d^cde fefg|afge fde^c|"D"d^cde "F"=fd=cA|]
